svg/300/sharp/important_devices-fill.svg

<svg xmlns="http://www.w3.org/2000/svg" width="48" height="48" viewBox="0 -960 960 960"><path d="M633.846-140.001v-386.691h226.153v386.691H633.846Zm35.384-60.77h155.384v-265.151H669.23v265.151Zm110.769-619.228v227.922H470.538L440-686.461l-30.538 94.384H310.77l79.461 64.384-28.692 98.692L440-490.539l78.461 61.538-28.692-98.692 78.692-63.614v291.306H462.692v114.616h94.231v45.384H323.077v-45.384h94.231v-114.616H100.001v-519.998h679.998Z"/></svg>

<svg xmlns="http://www.w3.org/2000/svg" width="48" height="48" viewBox="0 -960 960 960"><path d="M633.85-140v-386.69H860V-140H633.85Zm35.38-60.77h155.38v-265.15H669.23v265.15ZM780-820v227.92H470.54L440-686.46l-30.54 94.38h-98.69l79.46 64.39L361.54-429 440-490.54 518.46-429l-28.69-98.69 78.69-63.62V-300H462.69v114.61h94.23V-140H323.08v-45.39h94.23V-300H100v-520h680Z"/></svg>
